source/images/logos-subvisual.svg

<?xml version="1.0" encoding="UTF-8" standalone="no"?>
<svg width="200px" height="40px" viewBox="0 0 200 40" version="1.1" xmlns="http://www.w3.org/2000/svg" xmlns:xlink="http://www.w3.org/1999/xlink" xmlns:sketch="http://www.bohemiancoding.com/sketch/ns">
    <!-- Generator: Sketch 3.3.3 (12072) - http://www.bohemiancoding.com/sketch -->
    <title>logo-horizontal-white</title>
    <desc>Created with Sketch.</desc>
    <defs></defs>
    <g id="stickers" stroke="none" stroke-width="1" fill="none" fill-rule="evenodd" sketch:type="MSPage">
        <g id="Artboard-1" sketch:type="MSArtboardGroup" transform="translate(-6893.000000, -2734.000000)" fill="#FFFFFF">
            <g id="logo-horizontal-white" sketch:type="MSLayerGroup" transform="translate(6893.000000, 2734.000000)">
                <path d="M61.9433694,14.3766713 L59.9651623,15.5332071 C59.5953368,14.8998629 59.2429613,14.4868185 58.9080251,14.2940616 C58.5591332,14.073768 58.1090694,13.9636228 57.5578202,13.9636228 C56.8809699,13.9636228 56.3192624,14.1529348 55.8726807,14.5315645 C55.4260991,14.90331 55.2028116,15.3714269 55.2028116,15.9359293 C55.2028116,16.7138412 55.7889412,17.3402918 56.961218,17.8152999 L58.5730905,18.4658513 C59.8849241,18.9890486 60.8443624,19.6275464 61.4514343,20.3813636 C62.0585062,21.1351808 62.3620376,22.0593676 62.3620376,23.1539515 C62.3620376,24.620281 61.8666186,25.8318777 60.8757656,26.7887781 C59.8779347,27.7525627 58.6393871,28.2344478 57.1600854,28.2344478 C55.75754,28.2344478 54.5992362,27.8248455 53.6851395,27.0056286 C52.7849984,26.1864117 52.2232908,25.0333295 52,23.5463476 L54.4701423,23.0093846 C54.5817877,23.9456325 54.7771642,24.5927353 55.0562778,24.9507124 C55.5586821,25.63913 56.2913441,25.9833336 57.2542857,25.9833336 C58.0148701,25.9833336 58.646355,25.732065 59.1487593,25.2295201 C59.6511636,24.7269753 59.902362,24.0901986 59.902362,23.3191709 C59.902362,23.009383 59.8587512,22.725415 59.7715282,22.4672584 C59.6843052,22.2091018 59.5482394,21.9716013 59.3633267,21.7547498 C59.178414,21.5378983 58.9394267,21.3348181 58.6463575,21.1455033 C58.3532883,20.9561885 58.0044016,20.7754816 57.599687,20.6033772 L56.040148,19.963152 C53.8281734,19.0406725 52.7222026,17.6913943 52.7222026,15.9152769 C52.7222026,14.7174303 53.1862219,13.7157978 54.1142743,12.9103492 C55.0423268,12.0980165 56.1971417,11.6918562 57.5787536,11.6918562 C59.4418363,11.6918562 60.8966937,12.5867856 61.9433694,14.3766713 L61.9433694,14.3766713 Z M72.1265216,12.0016426 L72.1265216,21.6050197 C72.1265216,22.9749707 72.3532979,23.9766032 72.8068574,24.6099474 C73.4837077,25.5255428 74.4361683,25.9833336 75.6642678,25.9833336 C76.8993451,25.9833336 77.8552946,25.5255428 78.5321448,24.6099474 C78.9857043,23.9972558 79.2124806,22.9956232 79.2124806,21.6050197 L79.2124806,12.0016426 L81.6512228,12.0016426 L81.6512228,22.2658973 C81.6512228,23.9456362 81.1209151,25.3293347 80.0602837,26.4170345 C78.8670734,27.6286494 77.4017494,28.2344478 75.6642678,28.2344478 C73.9267861,28.2344478 72.464951,27.6286494 71.2787185,26.4170345 C70.2180871,25.3293347 69.6877794,23.9456362 69.6877794,22.2658973 L69.6877794,12.0016426 L72.1265216,12.0016426 Z M89.9085013,27.9453139 L89.9085013,12.0016426 L92.3367768,12.0016426 C93.4183417,12.0016426 94.2800917,12.0842514 94.9220528,12.2494717 C95.5709918,12.4146919 96.1187438,12.6934968 96.5653255,13.0858948 C97.018885,13.4920612 97.3782382,13.9980405 97.6433961,14.603848 C97.9155317,15.2165396 98.0515975,15.8361062 98.0515975,16.4625661 C98.0515975,17.6053393 97.6085115,18.5725515 96.722326,19.3642317 C97.5806001,19.6533671 98.2574403,20.1593464 98.7528668,20.8821849 C99.2552711,21.5981392 99.5064695,22.4311119 99.5064695,23.3811282 C99.5064695,24.627164 99.0598946,25.6804271 98.1667313,26.5409491 C97.6294378,27.0710306 97.0258638,27.4393285 96.3559914,27.6458537 C95.6233184,27.8454948 94.7057465,27.9453139 93.6032481,27.9453139 L89.9085013,27.9453139 Z M92.3472435,18.8479211 L93.1113129,18.8479211 C94.0184319,18.8479211 94.683061,18.650004 95.1052202,18.2541639 C95.5273794,17.8583238 95.7384558,17.2748987 95.7384558,16.503871 C95.7384558,15.7534958 95.5221461,15.1838388 95.0895201,14.7948829 C94.6568942,14.405927 94.0288982,14.2114519 93.2055133,14.2114519 L92.3472435,14.2114519 L92.3472435,18.8479211 Z M92.3472435,25.6838735 L93.854449,25.6838735 C94.9569474,25.6838735 95.7663644,25.4704672 96.2827245,25.0436483 C96.8269958,24.5824085 97.0991274,23.9972624 97.0991274,23.2881923 C97.0991274,22.5997747 96.8374624,22.0215126 96.3141246,21.5533887 C95.8047424,21.0921489 94.8941482,20.8615325 93.5823146,20.8615325 L92.3472435,20.8615325 L92.3472435,25.6838735 Z M107.167146,12.0016426 L111.636429,23.0506894 L116.168512,12.0016426 L118.837522,12.0016426 L111.584095,29.1431545 L104.498136,12.0016426 L107.167146,12.0016426 Z M127.670469,12.0016426 L127.670469,27.9453139 L125.231727,27.9453139 L125.231727,12.0016426 L127.670469,12.0016426 Z M145.075647,14.3766713 L143.09744,15.5332071 C142.727615,14.8998629 142.375239,14.4868185 142.040303,14.2940616 C141.691411,14.073768 141.241347,13.9636228 140.690098,13.9636228 C140.013248,13.9636228 139.45154,14.1529348 139.004958,14.5315645 C138.558377,14.90331 138.335089,15.3714269 138.335089,15.9359293 C138.335089,16.7138412 138.921219,17.3402918 140.093496,17.8152999 L141.705368,18.4658513 C143.017202,18.9890486 143.97664,19.6275464 144.583712,20.3813636 C145.190784,21.1351808 145.494315,22.0593676 145.494315,23.1539515 C145.494315,24.620281 144.998896,25.8318777 144.008043,26.7887781 C143.010212,27.7525627 141.771665,28.2344478 140.292363,28.2344478 C138.889818,28.2344478 137.731514,27.8248455 136.817417,27.0056286 C135.917276,26.1864117 135.355568,25.0333295 135.132278,23.5463476 L137.60242,23.0093846 C137.714065,23.9456325 137.909442,24.5927353 138.188555,24.9507124 C138.69096,25.63913 139.423622,25.9833336 140.386563,25.9833336 C141.147148,25.9833336 141.778633,25.732065 142.281037,25.2295201 C142.783441,24.7269753 143.03464,24.0901986 143.03464,23.3191709 C143.03464,23.009383 142.991029,22.725415 142.903806,22.4672584 C142.816583,22.2091018 142.680517,21.9716013 142.495604,21.7547498 C142.310692,21.5378983 142.071704,21.3348181 141.778635,21.1455033 C141.485566,20.9561885 141.136679,20.7754816 140.731965,20.6033772 L139.172426,19.963152 C136.960451,19.0406725 135.85448,17.6913943 135.85448,15.9152769 C135.85448,14.7174303 136.3185,13.7157978 137.246552,12.9103492 C138.174604,12.0980165 139.329419,11.6918562 140.711031,11.6918562 C142.574114,11.6918562 144.028971,12.5867856 145.075647,14.3766713 L145.075647,14.3766713 Z M155.258799,12.0016426 L155.258799,21.6050197 C155.258799,22.9749707 155.485576,23.9766032 155.939135,24.6099474 C156.615985,25.5255428 157.568446,25.9833336 158.796545,25.9833336 C160.031623,25.9833336 160.987572,25.5255428 161.664422,24.6099474 C162.117982,23.9972558 162.344758,22.9956232 162.344758,21.6050197 L162.344758,12.0016426 L164.7835,12.0016426 L164.7835,22.2658973 C164.7835,23.9456362 164.253193,25.3293347 163.192561,26.4170345 C161.999351,27.6286494 160.534027,28.2344478 158.796545,28.2344478 C157.059064,28.2344478 155.597229,27.6286494 154.410996,26.4170345 C153.350365,25.3293347 152.820057,23.9456362 152.820057,22.2658973 L152.820057,12.0016426 L155.258799,12.0016426 Z M181.843278,24.0729844 L174.924786,24.0729844 L173.124513,27.9453139 L170.49737,27.9453139 L178.493932,11 L186.207893,27.9453139 L183.538884,27.9453139 L181.843278,24.0729844 Z M180.848941,21.811544 L178.452065,16.3902827 L175.940056,21.811544 L180.848941,21.811544 Z M195.051307,12.0016426 L195.051307,25.6838735 L199.803191,25.6838735 L199.803191,27.9453139 L192.612565,27.9453139 L192.612565,12.0016426 L195.051307,12.0016426 Z" id="SUBVISUAL-52-Copy-63" sketch:type="MSShapeGroup"></path>
                <g id="Polygon-182-Copy-11-+-Polygon-185-Copy-11-Copy-Copy-Copy-Copy-Copy-Copy-Copy-Copy-Copy" sketch:type="MSShapeGroup">
                    <path d="M0.00952833165,7.57306466 L13.396765,0.0279879263 L13.396765,0.0267232626 L26.6841979,7.59166199 L26.6841979,15.4707596 L13.3973947,7.57789935 L13.3973947,7.57843485 L6.96474199,11.361521 L9.34926118,9.95420166 L0.00952833165,7.57306466 Z M0.00724473052,7.5743517 L0,7.57843485 L8.79366501e-15,15.4575325 L0.00724473052,15.4532718 L0.00724473052,7.5743517 Z M17.7404776,29.8017398 L13.4889602,32.3924846 L13.4889602,32.4145815 L0.0963841359,24.5270723 L0.0963841359,32.4174196 L13.4889602,39.9762827 L13.4889602,39.9762827 L13.4889602,39.9861918 L26.7929074,32.1598575 L17.7404776,29.8017398 L17.7404776,29.8017398 Z" id="Polygon-182-Copy-11"></path>
                    <path d="M26.7947898,32.1424184 L1.97175609e-13,15.4520386 L1.97175609e-13,7.56762603 L26.7947898,24.2580058 L26.7947898,32.1424184 L26.7947898,32.1424184 Z" id="Polygon-185-Copy-11"></path>
                </g>
            </g>
        </g>
    </g>
</svg>

<svg width="200" height="40" viewBox="0 0 200 40" xmlns="http://www.w3.org/2000/svg"><title>logo-horizontal-white</title><g fill="#FFF" fill-rule="evenodd"><path d="M61.943 14.377l-1.978 1.156c-.37-.633-.722-1.046-1.057-1.239-.349-.22-.799-.33-1.35-.33-.677 0-1.239.189-1.685.568-.447.371-.67.84-.67 1.404 0 .778.586 1.404 1.758 1.88l1.612.65c1.312.523 2.271 1.162 2.878 1.915.608.754.911 1.678.911 2.773 0 1.466-.495 2.678-1.486 3.635-.998.964-2.237 1.445-3.716 1.445-1.402 0-2.56-.41-3.475-1.228-.9-.82-1.462-1.973-1.685-3.46l2.47-.537c.112.937.307 1.584.586 1.942.503.688 1.235 1.032 2.198 1.032.76 0 1.392-.25 1.895-.753.502-.503.753-1.14.753-1.91 0-.31-.043-.595-.13-.853a2.154 2.154 0 0 0-.409-.712 3.25 3.25 0 0 0-.717-.61 6.94 6.94 0 0 0-1.046-.542l-1.56-.64c-2.212-.922-3.318-2.272-3.318-4.048 0-1.198.464-2.2 1.392-3.005.928-.812 2.083-1.218 3.465-1.218 1.863 0 3.318.895 4.364 2.685zm10.184-2.375v9.603c0 1.37.226 2.372.68 3.005.677.916 1.63 1.373 2.857 1.373 1.235 0 2.191-.457 2.868-1.373.454-.613.68-1.614.68-3.005v-9.603h2.44v10.264c0 1.68-.531 3.063-1.592 4.151-1.193 1.212-2.658 1.817-4.396 1.817-1.737 0-3.199-.605-4.385-1.817-1.06-1.088-1.591-2.471-1.591-4.151V12.002h2.439zm17.782 15.943V12.002h2.428c1.081 0 1.943.082 2.585.247.649.166 1.197.444 1.643.837a4.34 4.34 0 0 1 1.078 1.518 4.54 4.54 0 0 1 .409 1.859c0 1.142-.443 2.11-1.33 2.901a3.9 3.9 0 0 1 2.03 1.518c.503.716.754 1.55.754 2.5 0 1.245-.446 2.298-1.34 3.159-.537.53-1.14.898-1.81 1.105-.733.2-1.65.3-2.753.3H89.91zm2.438-9.097h.764c.907 0 1.572-.198 1.994-.594.422-.396.633-.98.633-1.75 0-.75-.216-1.32-.648-1.71-.433-.388-1.061-.583-1.884-.583h-.859v4.637zm0 6.836h1.507c1.103 0 1.912-.214 2.429-.64a2.201 2.201 0 0 0 .816-1.756c0-.688-.262-1.266-.785-1.735-.51-.46-1.42-.691-2.732-.691h-1.235v4.822zm14.82-13.682l4.47 11.049L116.168 12h2.669l-7.254 17.142-7.086-17.141h2.67zm20.503 0v15.943h-2.438V12.002h2.438zm17.406 2.375l-1.979 1.156c-.37-.633-.722-1.046-1.057-1.239-.349-.22-.799-.33-1.35-.33-.677 0-1.238.189-1.685.568-.447.371-.67.84-.67 1.404 0 .778.586 1.404 1.758 1.88l1.612.65c1.312.523 2.272 1.162 2.879 1.915.607.754.91 1.678.91 2.773 0 1.466-.495 2.678-1.486 3.635-.998.964-2.236 1.445-3.716 1.445-1.402 0-2.56-.41-3.475-1.228-.9-.82-1.461-1.973-1.685-3.46l2.47-.537c.112.937.307 1.584.587 1.942.502.688 1.235 1.032 2.198 1.032.76 0 1.392-.25 1.894-.753s.754-1.14.754-1.91c0-.31-.044-.595-.131-.853a2.154 2.154 0 0 0-.408-.712 3.25 3.25 0 0 0-.717-.61 6.94 6.94 0 0 0-1.047-.542l-1.56-.64c-2.212-.922-3.318-2.272-3.318-4.048 0-1.198.464-2.2 1.393-3.005.928-.812 2.082-1.218 3.464-1.218 1.863 0 3.318.895 4.365 2.685zm10.183-2.375v9.603c0 1.37.227 2.372.68 3.005.677.916 1.63 1.373 2.858 1.373 1.235 0 2.19-.457 2.867-1.373.454-.613.68-1.614.68-3.005v-9.603h2.44v10.264c0 1.68-.53 3.063-1.591 4.151-1.194 1.212-2.659 1.817-4.396 1.817-1.738 0-3.2-.605-4.386-1.817-1.06-1.088-1.59-2.471-1.59-4.151V12.002h2.438zm26.584 12.071h-6.918l-1.8 3.872h-2.628L178.494 11l7.714 16.945h-2.67l-1.695-3.872zm-.994-2.261l-2.397-5.422-2.512 5.422h4.909zm14.202-9.81v13.682h4.752v2.261h-7.19V12.002h2.438zM.01 7.573L13.397.028V.027l13.287 7.565v7.879L13.397 7.578l-6.432 3.784 2.384-1.408-9.34-2.38zm-.003.001L0 7.578v7.88l.007-.005V7.574zM17.74 29.802l-4.251 2.59v.023L.096 24.527v7.89l13.393 7.56v.01l13.304-7.827-9.053-2.358z"/><path d="M26.795 32.142L0 15.452V7.568l26.795 16.69v7.884z"/></g></svg>
